X:32
T:Castle Stuart
M:C|
L:1/8
K:Dmin
% note no B flats in the tune
FAcA  d/d/d (df)|TcAFA G/G/G (GA)     |FAcA d/d/d f2|defc        A/A/A A2:|
f>gfd cdTcA     | fgfd gg     a/g/f/e/|fgfd cdfg    |a/g/f/e/ fc A/A/A A2:|

% @@@@@@@@@@@@@@@@@@@@@@@@@@@@@@@@@@

%% 33. ===============================================================================

% +&D&uncan &M&acKay.+
%
% *FIRST Couple four hands round with 2d Couple.  Lead down thro' the 2d Couple,
% and go 4 hands round with the 3d Couple.  *Lead up to the top and cast off.
% Lead down thro' the 3d Couple and cast up.  *SETT across and turn.  *Reel at
% the sides.  Sett to your Partner and turn.

% @@@@@@@@@@@@@@@@@@@@@@@@@@@@@@@@@@

